img/mail-closed.svg

<svg xmlns='http://www.w3.org/2000/svg' width='16' height='16' viewBox='0 0 16 16'><path d='M1 3h14v10H1V3zm7 6c-.875 0-1.25-.5-1.25-.5L3.25 12h9.5l-3.5-3.5S8.875 9 8 9zm-6 3l4-4-4-4v8zm12 0V4l-4 4 4 4zM9.25 7.5l3.5-3.5h-9.5l3.5 3.5S7.562 8 8 8s1.25-.5 1.25-.5z'/></svg>

<svg xmlns='http://www.w3.org/2000/svg' width='16' height='16' viewBox='0 0 16 16'><path d='M1,3h14v10H1V3z M8,9C7.125,9,6.75,8.5,6.75,8.5L3.25,12h9.5l-3.5-3.5C9.25,8.5,8.875,9,8,9z M2,12l4-4L2,4V12z M14,12V4l-4,4L14,12z M9.25,7.5l3.5-3.5h-9.5l3.5,3.5C6.75,7.5,7.562,8,8,8S9.25,7.5,9.25,7.5z'/></svg>
